src/icons/svg/wechat.svg

<?xml version="1.0" encoding="UTF-8" standalone="no"?>
<svg width="128px" height="128px" viewBox="0 0 128 128" version="1.1" xmlns="http://www.w3.org/2000/svg" xmlns:xlink="http://www.w3.org/1999/xlink">
    <!-- Generator: Sketch 40 (33762) - http://www.bohemiancoding.com/sketch -->
    <title>wechat</title>
    <desc>Created with Sketch.</desc>
    <defs></defs>
    <g id="Page-1" stroke="none" stroke-width="1" fill="none" fill-rule="evenodd">
        <g id="wechat" fill="#000000">
            <g id="Group">
                <path d="M86.6348379,38.7882102 C88.1024114,38.7882102 89.5516935,38.9204598 90.9934527,39.1180201 C87.0775144,16.7475741 67.5792477,0.129171978 45.3210756,0.129171978 C20.4391495,0.129171978 0.0547923604,20.9308952 0.0547923604,47.3453567 C0.0547923604,62.5925965 6.83595805,75.1130701 18.1700086,84.823918 L13.6429378,101.525361 L29.4634942,91.7922601 C35.1287494,93.1679454 39.6702762,94.5794521 45.320928,94.5794521 C46.7407083,94.5794521 48.1497204,94.4942407 49.5476692,94.3596392 C48.6620213,90.6476043 48.1497204,86.7604429 48.1497204,82.727825 C48.1500154,58.4720532 65.1308826,38.7882102 86.6348379,38.7882102 L86.6348379,38.7882102 Z M62.2944197,23.7359979 C65.7018925,23.7359979 67.959675,26.4851976 67.959675,30.6638147 C67.959675,34.8248831 65.7017449,37.6118943 62.2944197,37.6118943 C58.9018455,37.6118943 55.4985031,34.8247022 55.4985031,30.6638147 C55.4986507,26.4851976 58.9019931,23.7359979 62.2944197,23.7359979 L62.2944197,23.7359979 Z M30.6165772,37.6120751 C27.2238554,37.6120751 23.7985341,34.8248831 23.7985341,30.6639956 C23.7985341,26.4853785 27.2240029,23.7361787 30.6165772,23.7361787 C34.0090038,23.7361787 36.2670814,26.4853785 36.2670814,30.6639956 C36.2670814,34.8248831 34.0090038,37.6120751 30.6165772,37.6120751 L30.6165772,37.6120751 Z" id="Shape"></path>
                <path d="M127.944913,82.0591593 C127.944913,59.8636591 109.837219,41.7706106 89.4968199,41.7706106 C67.9598224,41.7706106 50.9972464,59.8636591 50.9972464,82.0591593 C50.9972464,104.294823 67.9598224,122.347165 89.4968199,122.347165 C94.0054521,122.347165 98.5545018,120.951036 103.081425,119.559973 L115.495099,127.899478 L112.091461,114.025753 C121.178498,105.665804 127.944913,94.5794521 127.944913,82.0591593 L127.944913,82.0591593 Z M77.0172095,75.11307 C74.7629672,75.11307 72.4865985,72.3640511 72.4865985,69.5587674 C72.4865985,66.791657 74.7629672,64.006455 77.0172095,64.006455 C80.4391382,64.006455 82.6824647,66.7918379 82.6824647,69.5587674 C82.6824647,72.3640511 80.439138,75.11307 77.0172095,75.11307 L77.0172095,75.11307 Z M101.913886,75.11307 C99.6741,75.11307 97.4163175,72.3640511 97.4163175,69.5587674 C97.4163175,66.791657 99.6742476,64.006455 101.913886,64.006455 C105.306461,64.006455 107.578847,66.7918379 107.578847,69.5587674 C107.578994,72.3640511 105.306461,75.11307 101.913886,75.11307 L101.913886,75.11307 Z" id="Shape"></path>
            </g>
        </g>
    </g>
</svg>

<svg width="128" height="128" xmlns="http://www.w3.org/2000/svg"><g fill-rule="evenodd"><path d="M86.635 38.788c1.467 0 2.917.132 4.358.33C87.078 16.748 67.58.129 45.321.129 20.44.13.055 20.931.055 47.345c0 15.248 6.781 27.768 18.115 37.479l-4.527 16.701 15.82-9.733c5.666 1.376 10.207 2.787 15.858 2.787 1.42 0 2.829-.085 4.227-.22-.886-3.711-1.398-7.599-1.398-11.631 0-24.256 16.98-43.94 38.485-43.94zm-24.34-15.052c3.407 0 5.665 2.75 5.665 6.928 0 4.16-2.258 6.948-5.666 6.948-3.392 0-6.795-2.787-6.795-6.948 0-4.179 3.403-6.928 6.795-6.928zM30.616 37.612c-3.393 0-6.818-2.787-6.818-6.948 0-4.179 3.425-6.928 6.818-6.928 3.392 0 5.65 2.75 5.65 6.928 0 4.16-2.258 6.948-5.65 6.948z"/><path d="M127.945 82.06c0-22.196-18.108-40.29-38.448-40.29-21.537 0-38.5 18.094-38.5 40.29 0 22.235 16.963 40.287 38.5 40.287 4.508 0 9.058-1.396 13.584-2.787l12.414 8.34-3.404-13.874c9.087-8.36 15.854-19.447 15.854-31.967zm-50.928-6.947c-2.254 0-4.53-2.749-4.53-5.554 0-2.767 2.276-5.553 4.53-5.553a5.61 5.61 0 0 1 5.665 5.553 5.588 5.588 0 0 1-5.665 5.554zm24.897 0c-2.24 0-4.498-2.749-4.498-5.554 0-2.767 2.258-5.553 4.498-5.553 3.392 0 5.665 2.786 5.665 5.553a5.606 5.606 0 0 1-5.665 5.554z"/></g></svg>
